X:431
T: "Kluge Heirath"
N: Z1111
O: Europa, Mitteleuropa, Deutschland, Hessen
R: Romanze, Ballade
M: 3/4
L: 1/8
K: C
G,2 | C4C2 | D2E2C2 | B,6 | A,2z2
A,2 | C2C2C2 | C2G,2
G,2 | C4C2 | D2E2C2 | B,4B,2 | A,2z2
A,2 | C2C2C2 | C2G,2
G,2 | C4E2 | E3DC2 | B,2A,2A,2 | A,2z2
A,2 | D2D2D2 | D2E2C2 | B,4DB, | G,2z2
G,2 | C2C2C2 | C2G,2C2 | E2E2EE | G3FE2 | D6 | C2z2

@@@ Tune index: 10189
